public/about/notion.svg

<svg width="80" height="80" viewBox="0 0 80 80" fill="none" xmlns="http://www.w3.org/2000/svg">
<path d="M33.3333 56.6667H30V31.6667L47.394 57.7577C48.9567 60.1017 51.8247 61.2107 54.558 60.5273L55.4043 60.3157C56.1463 60.13 56.6667 59.4633 56.6667 58.6987V23.3333C56.6667 23.3333 60 23.3333 60 20H50C46.6667 20 46.6667 23.3333 46.6667 23.3333H50V43.3333L33.832 20.6979C33.519 20.2599 33.0142 20 32.4759 20H23.3333C20 20 20 23.3333 20 23.3333H23.3333V56.6667C23.3333 56.6667 20 56.6667 20 60H30C33.3333 60 33.3333 56.6667 33.3333 56.6667Z" fill="#FE705A"/>
<path fill-rule="evenodd" clip-rule="evenodd" d="M3.33398 13.3333C3.33398 7.81042 7.81115 3.33325 13.334 3.33325H66.6673C72.1903 3.33325 76.6673 7.81042 76.6673 13.3333V66.6666C76.6673 72.1896 72.1903 76.6666 66.6673 76.6666H13.334C7.81115 76.6666 3.33398 72.1896 3.33398 66.6666V13.3333ZM13.334 9.99992H66.6673C68.5083 9.99992 70.0006 11.4923 70.0006 13.3333V66.6666C70.0006 68.5076 68.5083 69.9999 66.6673 69.9999H13.334C11.4931 69.9999 10.0007 68.5076 10.0007 66.6666V13.3333C10.0007 11.4923 11.4931 9.99992 13.334 9.99992Z" fill="#FE705A"/>
</svg>

<?xml version="1.0"?>
<svg width="80" height="80" xmlns="http://www.w3.org/2000/svg" xmlns:svg="http://www.w3.org/2000/svg">
 <g class="layer">
  <title>Layer 1</title>
  <path d="m33.33,56.67l-3.33,0l0,-25l17.39,26.09c1.57,2.34 4.43,3.45 7.17,2.77l0.84,-0.21c0.75,-0.19 1.27,-0.86 1.27,-1.62l0,-35.37c0,0 3.33,0 3.33,-3.33l-10,0c-3.33,0 -3.33,3.33 -3.33,3.33l3.33,0l0,20l-16.17,-22.63c-0.31,-0.44 -0.82,-0.7 -1.35,-0.7l-9.15,0c-3.33,0 -3.33,3.33 -3.33,3.33l3.33,0l0,33.34c0,0 -3.33,0 -3.33,3.33l10,0c3.33,0 3.33,-3.33 3.33,-3.33z" fill="#3b82f6" id="svg_1"/>
  <path clip-rule="evenodd" d="m3.33,13.33c0,-5.52 4.48,-10 10,-10l53.34,0c5.52,0 10,4.48 10,10l0,53.34c0,5.52 -4.48,10 -10,10l-53.34,0c-5.52,0 -10,-4.48 -10,-10l0,-53.34zm10,-3.33l53.34,0c1.84,0 3.33,1.49 3.33,3.33l0,53.34c0,1.84 -1.49,3.33 -3.33,3.33l-53.34,0c-1.84,0 -3.33,-1.49 -3.33,-3.33l0,-53.34c0,-1.84 1.49,-3.33 3.33,-3.33z" fill="#3b82f6" fill-rule="evenodd" id="svg_2"/>
 </g>
</svg>
